X: 668
T: Etse Hânende Eğer
C: Ahmet Avni Konuk
O: Turkey
F: http://compmusic.upf.edu/node/140
N: rasticedid--kupe--devrirevanihindi--etse_hanende--ahmet_avni_konuk
N: makam= rasticedid
N: form= kupe
N: usul= devrirevanihindi = 14/8
M: 14/8
L: 1/16
K: C _1/4B ^f  
Q: 1/4=102
%%MIDI tuningsystem comma53
G4 G2^3/4FE D2E2 F2G4G2 A2_2/4BA G2z2  | \
w:  Et se  hâ *  *  *  *  nen  | 
A2_2/4B2 c2B2 AGA2 {B}AGG6 z8  | 
w:  de  *  e ğer  *  *  *  *  *  *  tak  | 
d4 d2^c2 d2_7/8e2 {^3/4f}edd4=c2 c_2/4BBA G2z2  | \
w:  sî mi ni  *  *  *  *  *  Rast_  | 
A2A2 _2/4B2G4e2 =f2e2 d2^c2 d6z2  | 
w:  ı  *  *  *  Ce *  dîd    | 
G4 _2/4B2A3cB2 d2c4e2 d/c/d/e/dc BAB2  | \
w:  Fikr_ i  gam  *  *  *  ol   | 
_2/4B2A2 B2c3ed2 c2B2 A2B2 dcBA G2z2  | 
w:  dem  *  o lur  *  *  *  sür  | 
d4 d2^c2 d2e2 ^3/4f2g2 =f2e2 d/c/d/e/d=c BAG2  | \
w:  at le  dil *  *  *  den   | 
A_7/8BAB AGAc _2/4BAAG G^3/4FG2 F2AG G4 z4  | 
w:  nâ *  *  *  *  *  *  *  *  *  be *  *  *  dîd    | 
|


